app/dist/common/images/desktop-metal.svg

<svg fill="none" height="18" width="18" xmlns="http://www.w3.org/2000/svg"><path d="m0 0h18v18h-18z" fill="#f33"/><path clip-rule="evenodd" d="m3.122 6h2.045v5h-2.045c-.062 0-.122-.062-.122-.123v-4.754c0-.062.06-.123.122-.123zm5.078 2.5c0-1.373-1.117-2.5-2.478-2.5h-.122v5h.122c1.36 0 2.478-1.127 2.478-2.5zm.325 2.379v-4.76c0-.102.144-.162.226-.081l2.049 2.248v2.714h-2.152c-.061 0-.123-.06-.123-.121zm2.6.121v-4.881c0-.102.146-.162.229-.081l2.046 2.134v2.828zm4.755 0h-2.155v-2.495l2.237 2.292c.082.082.02.203-.082.203z" fill="#fff" fill-rule="evenodd"/></svg>

<!-- by TradingView --><svg width="18" height="18" fill="none" xmlns="http://www.w3.org/2000/svg"><path fill="#F33" d="M0 0h18v18H0z"/><path fill-rule="evenodd" clip-rule="evenodd" d="M3.122 6h2.045v5H3.122C3.06 11 3 10.938 3 10.877V6.123C3 6.061 3.06 6 3.122 6zM8.2 8.5C8.2 7.127 7.083 6 5.722 6H5.6v5h.122C7.082 11 8.2 9.873 8.2 8.5zm.325 2.379v-4.76c0-.102.144-.162.226-.081L10.8 8.286V11H8.648c-.061 0-.123-.06-.123-.121zm2.6.121V6.119c0-.102.146-.162.229-.081L13.4 8.172V11h-2.275zm4.755 0h-2.155V8.505l2.237 2.292c.082.082.02.203-.082.203z" fill="#fff"/></svg>
